build/system/CloudOutline.svg

<svg xmlns="http://www.w3.org/2000/svg" fill="none" viewBox="0 0 24 24" focusable="false"><path d="M0 0H24V24H0z"/><path fill="none" d="M5.34194 18.9756C5.33986 18.9756 5.33777 18.9756 5.33569 18.9756C3.49533 18.9756 2.00342 17.4837 2.00342 15.6433C2.00342 13.803 3.49533 12.3111 5.33569 12.3111C5.40499 12.3111 5.45825 12.2478 5.44521 12.1798C5.37349 11.8054 5.33594 11.4188 5.33594 11.0235C5.33594 7.64948 8.07111 4.91431 11.4451 4.91431C14.4774 4.91431 16.9937 7.1235 17.4723 10.0202C17.4789 10.0601 17.5136 10.0895 17.554 10.0895C20.0079 10.0895 21.9971 12.0788 21.9971 14.5326C21.9971 16.9864 20.0079 18.9756 17.554 18.9756C17.5516 18.9756 17.5492 18.9756 17.5468 18.9756L5.34194 18.9756Z"/><path fill="#74767B" fill-rule="evenodd" d="M5.33569 18.9756L5.34194 18.9756L17.5468 18.9756L17.554 18.9756C20.0079 18.9756 21.9971 16.9864 21.9971 14.5326C21.9971 12.0788 20.0079 10.0895 17.554 10.0895C17.5136 10.0895 17.4789 10.0601 17.4723 10.0202C16.9937 7.1235 14.4774 4.91431 11.4451 4.91431C8.07111 4.91431 5.33594 7.64948 5.33594 11.0235C5.33594 11.4188 5.37349 11.8054 5.44521 12.1798C5.45825 12.2478 5.40499 12.3111 5.33569 12.3111C3.49533 12.3111 2.00342 13.803 2.00342 15.6433C2.00342 17.4837 3.49533 18.9756 5.33569 18.9756ZM5.33569 17.6756L5.3345 17.6756C5.17251 17.6755 5.01487 17.6572 4.86159 17.6206C4.75392 17.5949 4.64841 17.5602 4.54504 17.5164C4.43583 17.4702 4.33218 17.4155 4.23409 17.3521C4.11394 17.2744 4.00213 17.1838 3.89866 17.0804C3.79519 16.9769 3.70462 16.8651 3.62696 16.7449C3.56357 16.6468 3.50878 16.5432 3.46259 16.434C3.41887 16.3306 3.38415 16.2251 3.35844 16.1174C3.32176 15.9638 3.30342 15.8057 3.30342 15.6433C3.30342 15.4809 3.32176 15.3229 3.35844 15.1693C3.38415 15.0616 3.41886 14.9561 3.46259 14.8527C3.50878 14.7435 3.56358 14.6398 3.62698 14.5417C3.70463 14.4216 3.79519 14.3098 3.89866 14.2063C4.00213 14.1028 4.11394 14.0123 4.23409 13.9346C4.33218 13.8712 4.43583 13.8164 4.54504 13.7702C4.64841 13.7265 4.75393 13.6918 4.8616 13.6661C5.01525 13.6294 5.17328 13.6111 5.33569 13.6111C5.4436 13.6111 5.54881 13.5993 5.65132 13.5758C5.75267 13.5526 5.85139 13.5178 5.94747 13.4716C6.03862 13.4277 6.12325 13.3755 6.20137 13.3149C6.28035 13.2535 6.35267 13.1837 6.41833 13.1052C6.48496 13.0256 6.54167 12.9408 6.58845 12.8508C6.63419 12.7629 6.67044 12.67 6.69721 12.5722C6.72581 12.4678 6.74224 12.3628 6.74651 12.2573C6.75084 12.1504 6.74266 12.0431 6.72199 11.9352C6.711 11.8778 6.70105 11.8202 6.69216 11.7624C6.65468 11.519 6.63594 11.2727 6.63594 11.0235C6.63594 10.6526 6.67655 10.291 6.75776 9.9388C6.81949 9.6711 6.90468 9.40881 7.01333 9.15193C7.12545 8.88685 7.2589 8.63568 7.41368 8.39843C7.59476 8.12087 7.80504 7.86235 8.04451 7.62288C8.28398 7.38341 8.54249 7.17314 8.82005 6.99206C9.0573 6.83728 9.30847 6.70382 9.57356 6.5917C9.83044 6.48305 10.0927 6.39786 10.3604 6.33613C10.7126 6.25491 11.0742 6.21431 11.4451 6.21431C11.7912 6.21431 12.1297 6.24987 12.4605 6.32099C12.6909 6.37051 12.9175 6.43727 13.1404 6.52126C13.3773 6.6105 13.6043 6.71694 13.8215 6.84061C14.0858 6.99108 14.3356 7.16703 14.5708 7.36847C14.795 7.56044 14.9986 7.76914 15.1816 7.99457C15.3464 8.19766 15.4945 8.41433 15.6259 8.64459C15.7704 8.89777 15.8901 9.15965 15.985 9.43022C16.076 9.68952 16.1442 9.95681 16.1897 10.2321C16.2033 10.3144 16.2239 10.3942 16.2515 10.4716C16.279 10.5487 16.3135 10.6233 16.3549 10.6954C16.3949 10.7649 16.4401 10.83 16.4905 10.8908C16.5414 10.9519 16.5976 11.0087 16.6592 11.0609C16.7208 11.1132 16.786 11.1595 16.8547 11.1998C16.9228 11.2397 16.9944 11.2738 17.0695 11.3018C17.1473 11.331 17.2266 11.3529 17.3071 11.3675C17.3881 11.3822 17.4704 11.3895 17.554 11.3895C17.7998 11.3895 18.0393 11.4168 18.2723 11.4713C18.444 11.5114 18.6123 11.5663 18.777 11.636C18.9486 11.7086 19.1112 11.7948 19.265 11.8948C19.4481 12.0138 19.6186 12.1522 19.7765 12.3101C19.9344 12.468 20.0728 12.6385 20.1919 12.8216C20.2918 12.9754 20.378 13.138 20.4506 13.3096C20.5203 13.4743 20.5752 13.6426 20.6154 13.8143C20.6698 14.0473 20.6971 14.2868 20.6971 14.5326C20.6971 14.7784 20.6698 15.0178 20.6154 15.2509C20.5752 15.4226 20.5203 15.5908 20.4506 15.7556C20.3781 15.9271 20.2918 16.0898 20.1919 16.2435C20.0728 16.4267 19.9344 16.5972 19.7765 16.755C19.6186 16.9129 19.4481 17.0514 19.265 17.1704C19.1112 17.2703 18.9486 17.3566 18.777 17.4291C18.6123 17.4988 18.4441 17.5537 18.2724 17.5939C18.0393 17.6484 17.7999 17.6756 17.554 17.6756L17.5479 17.6756L17.5468 17.6756L5.34194 17.6756L5.33569 17.6756Z"/></svg>

<svg xmlns="http://www.w3.org/2000/svg" fill="none" viewBox="0 0 24 24" focusable="false"><path fill="none" d="M5.34 18.97h-.01C3.49 18.97 2 17.48 2 15.64s1.49-3.33 3.33-3.33c.07 0 .12-.07.11-.14a6.11 6.11 0 0 1 6-7.26c3.03 0 5.55 2.21 6.03 5.11 0 .04.04.06.08.06a4.445 4.445 0 0 1 0 8.89H5.34"/><path fill="#74767B" fill-rule="evenodd" d="M5.34 18.97h-.01C3.49 18.97 2 17.48 2 15.64s1.49-3.33 3.33-3.33c.07 0 .12-.07.11-.14a6.11 6.11 0 0 1 6-7.26c3.03 0 5.55 2.21 6.03 5.11 0 .04.04.06.08.06a4.445 4.445 0 0 1 0 8.89H5.34m-.01-1.3q-.24 0-.47-.05-.16-.04-.32-.11t-.31-.16q-.18-.12-.34-.27-.15-.16-.27-.34-.09-.15-.16-.31t-.11-.32q-.05-.23-.05-.47 0-.25.05-.48.04-.16.11-.31.07-.17.16-.31.12-.18.27-.34.16-.15.34-.27.15-.1.31-.16.16-.07.32-.11.23-.05.47-.05.16 0 .32-.04.15-.03.29-.1t.26-.16q.11-.09.21-.21t.17-.25q.07-.14.11-.28.05-.16.05-.32.01-.16-.02-.32-.02-.09-.03-.17-.06-.37-.06-.74 0-.56.12-1.09.1-.4.26-.78.17-.4.4-.76.27-.41.63-.77t.77-.63q.36-.24.76-.4.38-.17.79-.26.52-.12 1.08-.12.52 0 1.02.11.34.07.68.2.35.13.68.32.39.22.75.52.33.29.61.63.24.3.44.65.22.38.36.79.14.38.2.8.02.12.07.24.04.11.1.22.06.1.14.2.07.09.16.17.1.07.2.13t.21.11q.12.04.24.06t.25.02q.37 0 .72.09.25.06.5.16.26.11.49.26.27.18.51.42.24.23.42.51.15.23.26.48.1.25.16.51.08.35.08.72t-.08.72q-.06.25-.16.5-.11.26-.26.49-.18.27-.42.51t-.51.42q-.23.15-.49.25-.25.11-.5.17-.35.08-.72.08H5.33"/></svg>
